X:229
T:Russan Waltz
O:No 229 Wm Clarke of Feltwell
N:bar line missing Bar 4 last part.
M:3/4
L:1/8
K:G
G2|d>(e/d/) c2 A2| B4 G2| (AB) ce| d4 B2| d>(ed) c2 A2| B4 G2| FAd^c=cA| G4:||/!
:B2|(gd)(dB)(BG)| (ec)(cA)(AG)| FAd^c=cA| GB d2 d2|(gd)(dB)(BG)| (ec)(cA)(AF)| FAd^c=cA| G !segno!:||/!
:d2 d/(e/d/c/) BGBG| (d/e/d/c/) BGBG|ABcBed| d3 ^c=cA| (d/e/d/c/) BGBG| (d/e/d/c/) BGBG| ABcedF| G3:||/!
:b>b| b3 ^ab>a|b3 ^ab>a| bcbagf| e2B2 a>a |a3 ^ga>g| a3 ^ga>g| a>ba>gf>e|d4!segno!:||

